X: 23785
T: Little Heathy Hill, The
R: hornpipe
M: 4/4
K: Aminor
|:cd|efed c2 (3BcB|AcBA (3GAG E2|ABAG EDEG|~A2 AB ~c2 cd|
efed c2 (3BcB|AcBA (3GAG E2|ABAG EDEG|A2 (3BAG A2:|
E2|ABcd e2 e^f|ga (3g^fe dBGB|efed c2 (3BcB|AGE^F G2 cd|
efed c2 (3BcB|AcBA (3GAG E2|ABAG EDEG|A2 AB c2 cd|
efed c2 (3BcB|AcBA (3GAG E2|ABAG EDEG|A2 (3BAG A2||

